X: 2
T: The Donegal
R: reel
M: 4/4
L: 1/8
K: Dmaj
|:defg afdg|fdfg bagf|e=cef (3gag fg|ecef (3gagfe|defg afdf|afdf abag|((3fgf) ((3efe) dBAG|1 FGEF D3A:|2 FGEF D2||


Tune 1621	Setting 29736

